assets/efishery/gradding-ikan.svg

<svg width="24" height="25" viewBox="0 0 24 25" fill="none" xmlns="http://www.w3.org/2000/svg">
<path fill-rule="evenodd" clip-rule="evenodd" d="M12.3715 7.91132C12.191 8.46688 12.2089 9.02596 12.3184 9.46699C12.3655 9.65679 12.4323 9.83554 12.516 9.98929L11.5538 10.6925C11.4164 10.793 11.3528 10.9588 11.3882 11.124C11.4237 11.2892 11.5524 11.427 11.7233 11.4825L13.5761 12.0846C13.747 12.1401 13.9321 12.1043 14.0579 11.9915C14.1837 11.8786 14.2297 11.707 14.1776 11.545L13.8125 10.4105C13.9706 10.3354 14.1297 10.23 14.2794 10.1041C14.6272 9.81173 14.9703 9.36994 15.1508 8.81438C15.3212 8.29009 15.3681 7.75722 15.2857 7.3097C15.2087 6.89226 14.9816 6.39575 14.4558 6.22491C13.93 6.05406 13.4544 6.32226 13.1468 6.61475C12.8171 6.92832 12.5418 7.38703 12.3715 7.91132ZM13.8074 7.43242C13.6795 7.39086 13.6069 7.26144 13.6453 7.14337C13.6836 7.02529 13.8184 6.96327 13.9463 7.00483C14.0743 7.04639 14.1468 7.1758 14.1085 7.29388C14.0701 7.41195 13.9353 7.47398 13.8074 7.43242Z" fill="#1D1D1D"/>
<path d="M16.26 19.2734C16.26 19.5496 16.0362 19.7734 15.76 19.7734C15.4839 19.7734 15.26 19.5496 15.26 19.2734C15.26 18.9973 15.4839 18.7734 15.76 18.7734C16.0362 18.7734 16.26 18.9973 16.26 19.2734Z" fill="#1D1D1D"/>
<path d="M14.76 21.2734C15.0362 21.2734 15.26 21.0496 15.26 20.7734C15.26 20.4973 15.0362 20.2734 14.76 20.2734C14.4839 20.2734 14.26 20.4973 14.26 20.7734C14.26 21.0496 14.4839 21.2734 14.76 21.2734Z" fill="#1D1D1D"/>
<path fill-rule="evenodd" clip-rule="evenodd" d="M15.7826 4.07882C14.2117 3.53759 12.3207 3.50708 10.4523 3.94996C10.4611 3.86221 10.4691 3.77528 10.4762 3.6892C10.5217 3.13259 10.5317 2.53525 10.3058 2.07047C10.1832 1.81825 9.99308 1.60685 9.7236 1.46545C9.46286 1.32864 9.15878 1.27344 8.82683 1.27344C8.19402 1.27344 7.641 1.51539 7.26301 1.96897C6.89085 2.41556 6.72851 3.018 6.76507 3.67617C6.79194 4.15995 6.92542 4.68558 7.17431 5.2343C5.06091 6.36643 3.45282 7.95644 2.54565 9.68309C1.60348 11.4764 1.39837 13.47 2.27743 15.1953L2.29037 15.2205C2.19683 15.2862 2.10631 15.3531 2.0197 15.4212C1.69065 15.6799 1.38684 15.9797 1.19804 16.3278C0.999785 16.6935 0.92954 17.1139 1.08428 17.5556C1.23094 17.9741 1.55858 18.3501 2.02217 18.6995C2.63382 19.1604 3.1986 19.4067 3.73077 19.4605C4.27336 19.5154 4.73085 19.365 5.10844 19.1262C5.18187 19.0798 5.2523 19.03 5.31985 18.9779C6.59681 20.71 8.08274 22.1154 9.84857 22.8425C12.2641 23.8372 15.0276 23.4964 18.1751 21.3981C19.74 20.3548 20.7972 19.2768 21.4288 18.137C22.0674 16.9846 22.2438 15.8174 22.125 14.6547C22.008 13.5096 21.6059 12.3789 21.1088 11.2766C20.7552 10.4924 20.3353 9.68514 19.9176 8.88209C19.7525 8.56472 19.5876 8.24787 19.4275 7.93351C19.4048 7.88907 19.3784 7.84786 19.3487 7.81006C19.3158 7.66985 19.2767 7.53076 19.2313 7.39304C19.3799 7.32056 19.5236 7.24498 19.6596 7.16587C20.0215 6.95549 20.3641 6.70087 20.5995 6.38238C20.8467 6.04792 20.9748 5.64131 20.883 5.18244C20.796 4.74754 20.5239 4.32959 20.1134 3.91913C19.5719 3.37758 19.0469 3.05506 18.5274 2.92769C17.9977 2.79784 17.5237 2.88313 17.1166 3.067C16.7211 3.2456 16.3881 3.51729 16.1189 3.76208C15.995 3.87472 15.8924 3.97325 15.801 4.06117L15.7826 4.07882ZM9.23232 6.50533C9.23459 5.74547 9.32088 5.01801 9.39469 4.39574C9.42879 4.10825 9.46024 3.84309 9.47949 3.60768C9.52599 3.03929 9.49948 2.69912 9.40641 2.50765C9.36951 2.43175 9.32449 2.38534 9.25897 2.35096C9.18469 2.31198 9.05388 2.27344 8.82683 2.27344C8.45962 2.27344 8.20012 2.40649 8.03123 2.60916C7.85651 2.81882 7.7376 3.15388 7.76353 3.6207C7.78903 4.07977 7.95604 4.64449 8.31695 5.27086C8.36029 5.31884 8.39811 5.37326 8.42886 5.43363C8.4418 5.45902 8.45316 5.48481 8.46297 5.51088C8.66752 5.83026 8.92181 6.16356 9.23232 6.50533ZM3.87354 10.3807C4.63148 8.93812 6.02864 7.53444 7.94874 6.52138C8.35487 7.06267 8.86995 7.61182 9.50139 8.15307C9.51568 8.16531 9.53052 8.17664 9.54582 8.18705C9.43942 8.48818 9.34733 8.81473 9.27149 9.16868C9.14273 9.76956 8.91031 10.4981 8.56996 11.2096C8.44925 11.1251 8.32029 11.0469 8.18322 10.977C7.60427 10.682 6.99258 10.5291 6.4564 10.5426C5.95624 10.5552 5.33637 10.728 5.04052 11.3087C4.74468 11.8893 4.96922 12.4923 5.25301 12.9044C5.48897 13.247 5.83263 13.5675 6.2451 13.8317C6.08848 13.9058 5.92641 13.9669 5.75882 14.0137C5.11886 14.1923 4.35656 14.1734 3.44608 13.8092L3.33247 13.7638C3.07297 12.7356 3.25292 11.562 3.87354 10.3807ZM7.37419 14.3193C6.97379 14.6083 6.52569 14.8379 6.02759 14.9769C5.46574 15.1337 4.85778 15.1702 4.2064 15.0611C4.67338 15.7142 5.44643 16.3158 6.60742 16.5454C8.32213 16.8847 10.979 16.4314 14.8568 13.9389C14.388 13.9515 13.9238 13.9943 13.4759 14.0892C13.2702 14.1328 13.0591 14.043 12.9479 13.8645C12.8367 13.686 12.849 13.457 12.9788 13.2915C14.3829 11.5008 15.9872 10.691 17.3437 10.5368C17.777 9.59328 17.9654 8.68582 17.7831 7.92237C17.584 7.08842 16.9021 6.27826 15.1894 5.77347C14.3567 5.77415 13.338 5.79248 12.4202 6.22562C11.5166 6.65204 10.6488 7.51369 10.2493 9.37821C10.0916 10.1139 9.79064 11.0419 9.32476 11.9362C9.39896 12.0337 9.46543 12.132 9.52402 12.2293C9.64293 12.4268 9.73626 12.6314 9.79461 12.8293L11.1827 12.6135C11.3809 12.5827 11.5721 12.6679 11.6803 12.8351C11.7885 13.0024 11.796 13.2245 11.6999 13.4132L10.6574 15.4592C10.5613 15.6478 10.3771 15.7723 10.1782 15.7831C9.97934 15.7939 9.79803 15.6892 9.70646 15.5108L9.06518 14.261C8.87075 14.3301 8.65035 14.3748 8.4207 14.3947C8.10321 14.4222 7.74306 14.4042 7.37419 14.3193ZM19.1776 10.7212L19.2173 10.8001C19.1926 10.7882 19.1675 10.7766 19.1421 10.7654C19.1545 10.7512 19.1663 10.7365 19.1776 10.7212ZM12.3776 5.16021C11.7633 5.20537 11.1183 5.31575 10.4532 5.49756C10.3954 5.51337 10.3373 5.52196 10.2799 5.52388C10.2424 5.94508 10.2199 6.37699 10.2349 6.81566C10.7276 6.10679 11.3361 5.63144 11.9934 5.32126C12.1206 5.26124 12.2489 5.2078 12.3776 5.16021ZM4.1408 17.2011C4.33687 17.5266 4.53835 17.8459 4.7456 18.1573C4.68948 18.2027 4.6324 18.2441 4.57402 18.281C4.35265 18.421 4.11579 18.4944 3.83139 18.4656C3.53659 18.4358 3.14177 18.291 2.62398 17.9008C2.24049 17.6119 2.08335 17.3828 2.02803 17.2249C1.98079 17.0901 1.99134 16.9627 2.07711 16.8045C2.17235 16.6289 2.35582 16.429 2.63774 16.2073C2.70114 16.1575 2.76796 16.1077 2.83788 16.058C3.20403 16.5098 3.64472 16.8903 4.1408 17.2011ZM18.8227 6.47965C18.941 6.42129 19.0528 6.36195 19.157 6.30136C19.467 6.12111 19.6765 5.94865 19.7953 5.78798C19.9023 5.64328 19.9304 5.51864 19.9024 5.37856C19.8696 5.2145 19.7459 4.96578 19.4063 4.62624C18.9479 4.16779 18.5771 3.96948 18.2893 3.89893C18.0116 3.83087 17.7669 3.87057 17.5282 3.97837C17.2778 4.09143 17.0379 4.27807 16.7915 4.50203L16.7773 4.515C17.628 4.97876 18.3348 5.63092 18.8227 6.47965ZM10.2745 21.3935C9.73581 21.1549 9.21761 20.8317 8.71801 20.4337C8.99398 20.4319 9.29229 20.4211 9.60953 20.3976C10.4471 20.3356 11.4186 20.1845 12.46 19.8735C12.3386 19.9647 12.26 20.1099 12.26 20.2734C12.26 20.5496 12.4839 20.7734 12.76 20.7734C13.0362 20.7734 13.26 20.5496 13.26 20.2734C13.26 20.0036 13.0463 19.7837 12.7789 19.7738C13.8237 19.4328 14.9307 18.9279 16.0374 18.19C16.4861 17.891 16.8923 17.5865 17.2601 17.2802C17.2637 17.5532 17.4862 17.7734 17.76 17.7734C18.0362 17.7734 18.26 17.5496 18.26 17.2734C18.26 17.0205 18.0722 16.8114 17.8283 16.7781C18.4277 16.2153 18.9054 15.6533 19.2858 15.1145C19.2691 15.1644 19.26 15.2179 19.26 15.2734C19.26 15.5496 19.4839 15.7734 19.76 15.7734C20.0362 15.7734 20.26 15.5496 20.26 15.2734C20.26 14.9973 20.0362 14.7734 19.76 14.7734C19.6385 14.7734 19.5271 14.8168 19.4404 14.8889C19.7408 14.4371 19.9735 14.0043 20.1536 13.6042C20.1722 13.5627 20.1903 13.5215 20.2079 13.4807C20.2429 13.4326 20.2766 13.3849 20.3088 13.3377C20.4719 13.8441 20.5843 14.3323 20.6328 14.8072C20.7151 15.6127 20.6146 16.3867 20.2466 17.158C20.1945 16.9375 19.9964 16.7734 19.76 16.7734C19.4839 16.7734 19.26 16.9973 19.26 17.2734C19.26 17.5496 19.4839 17.7734 19.76 17.7734C19.8122 17.7734 19.8625 17.7654 19.9098 17.7506C19.5263 18.3304 18.9678 18.9306 18.1771 19.5493C18.2295 19.4702 18.26 19.3754 18.26 19.2734C18.26 18.9973 18.0362 18.7734 17.76 18.7734C17.4839 18.7734 17.26 18.9973 17.26 19.2734C17.26 19.5496 17.4839 19.7734 17.76 19.7734C17.8139 19.7734 17.8658 19.7649 17.9144 19.7492C17.735 19.8819 17.5447 20.0156 17.3431 20.15C14.813 21.8367 12.7676 22.1526 11.0574 21.6754C11.1804 21.5843 11.26 21.4382 11.26 21.2734C11.26 20.9973 11.0362 20.7734 10.76 20.7734C10.4839 20.7734 10.26 20.9973 10.26 21.2734C10.26 21.3148 10.2651 21.355 10.2745 21.3935ZM14.6485 12.9456C14.9861 12.9311 15.3185 12.9325 15.6397 12.9415C16.0161 12.9521 16.383 12.9736 16.726 12.9936L16.7301 12.9939C17.0775 13.0142 17.3975 13.0328 17.6929 13.0393C18.3068 13.0527 18.7141 13.0078 18.9602 12.887C19.0675 12.8343 19.1315 12.7727 19.1739 12.6986C19.2189 12.6201 19.2603 12.491 19.2603 12.274C19.2603 12.1184 19.1726 11.93 18.9021 11.7653C18.6293 11.5991 18.2025 11.4848 17.6593 11.5135C16.8164 11.558 15.7292 11.9485 14.6485 12.9456ZM6.3267 12.2861C6.25473 12.4274 6.09069 12.488 5.9603 12.4216C5.82992 12.3552 5.78257 12.1868 5.85454 12.0456C5.92651 11.9043 6.09055 11.8437 6.22093 11.9101C6.35131 11.9765 6.39867 12.1449 6.3267 12.2861Z" fill="#1D1D1D"/>
</svg>

<svg viewBox="0 0 24 25" xmlns="http://www.w3.org/2000/svg">
  <path fill-rule="evenodd" clip-rule="evenodd" d="M12.371 7.911a2.869 2.869 0 0 0-.053 1.556c.048.19.114.369.198.522l-.962.704a.42.42 0 0 0-.166.431.494.494 0 0 0 .335.358l1.853.603c.171.055.356.02.482-.094a.42.42 0 0 0 .12-.446l-.366-1.134c.159-.076.318-.181.467-.307.348-.292.691-.734.872-1.29.17-.524.217-1.057.135-1.504-.077-.418-.304-.914-.83-1.085-.526-.17-1.002.097-1.31.39-.329.313-.604.772-.775 1.296zm1.436-.479c-.127-.041-.2-.17-.162-.289.039-.118.173-.18.301-.138.128.041.2.17.162.289-.038.118-.173.18-.3.138z"/>
  <path d="M16.26 19.273a.5.5 0 1 1-1 0 .5.5 0 0 1 1 0zM14.76 21.273a.5.5 0 1 0 0-1 .5.5 0 0 0 0 1z"/>
  <path fill-rule="evenodd" clip-rule="evenodd" d="M15.783 4.079c-1.571-.541-3.462-.572-5.33-.129l.023-.26c.046-.557.056-1.155-.17-1.62a1.32 1.32 0 0 0-.582-.605c-.261-.136-.565-.192-.897-.192-.633 0-1.186.242-1.564.696-.372.447-.534 1.049-.498 1.707.027.484.16 1.01.41 1.558-2.114 1.132-3.722 2.722-4.63 4.45-.942 1.792-1.147 3.786-.268 5.511l.013.025a6.25 6.25 0 0 0-.27.201c-.33.259-.633.559-.822.907a1.48 1.48 0 0 0-.114 1.228c.147.418.475.794.938 1.143.612.461 1.177.708 1.709.761.542.055 1-.095 1.377-.334.074-.046.144-.096.212-.148 1.277 1.732 2.763 3.137 4.529 3.864 2.415.995 5.179.654 8.326-1.444 1.565-1.043 2.622-2.121 3.254-3.261.638-1.152.815-2.32.696-3.482-.117-1.145-.52-2.276-1.016-3.378-.354-.785-.774-1.592-1.191-2.395-.165-.317-.33-.634-.49-.948a.756.756 0 0 0-.08-.124 4.926 4.926 0 0 0-.117-.417c.149-.072.293-.148.429-.227.361-.21.704-.465.94-.784a1.48 1.48 0 0 0 .283-1.2c-.087-.434-.36-.852-.77-1.263-.541-.541-1.066-.864-1.586-.991a2.122 2.122 0 0 0-1.41.139c-.396.179-.729.45-.998.695-.124.113-.227.211-.318.3l-.018.017zm-6.55 2.426c.002-.76.088-1.487.162-2.11.034-.287.065-.552.084-.787.047-.569.02-.909-.073-1.1a.322.322 0 0 0-.147-.157c-.074-.039-.205-.078-.432-.078-.367 0-.627.133-.796.336-.174.21-.293.545-.267 1.012.025.459.192 1.023.553 1.65a.75.75 0 0 1 .146.24c.205.32.459.653.77.994zm-5.36 3.876C4.632 8.938 6.03 7.534 7.95 6.52c.406.542.92 1.09 1.552 1.632.015.012.03.024.045.034a7.934 7.934 0 0 0-.275.982c-.128.6-.36 1.33-.701 2.04a3.245 3.245 0 0 0-.387-.232c-.579-.295-1.19-.448-1.727-.434-.5.012-1.12.185-1.415.766-.296.58-.072 1.183.212 1.595.236.343.58.664.992.928a3.06 3.06 0 0 1-.486.182c-.64.178-1.402.16-2.313-.205l-.114-.045c-.259-1.028-.08-2.202.542-3.383zm3.501 3.938c-.4.29-.848.519-1.346.658a4.154 4.154 0 0 1-1.822.084c.467.653 1.24 1.255 2.401 1.484 1.715.34 4.372-.114 8.25-2.606a7.665 7.665 0 0 0-1.381.15.5.5 0 0 1-.497-.798c1.404-1.79 3.008-2.6 4.365-2.754.433-.944.621-1.851.44-2.615-.2-.834-.882-1.644-2.595-2.149-.832.001-1.851.02-2.769.453-.903.426-1.771 1.288-2.17 3.152a10.446 10.446 0 0 1-.925 2.558c.074.098.14.196.199.293.119.198.212.402.27.6l1.389-.216c.198-.03.39.055.497.222.109.167.116.39.02.578l-1.043 2.046a.583.583 0 0 1-.479.324.495.495 0 0 1-.472-.272l-.64-1.25c-.195.07-.416.114-.645.134-.318.027-.678.01-1.047-.076zm11.804-3.598.04.08a2.462 2.462 0 0 0-.076-.036.693.693 0 0 0 .036-.044zm-6.8-5.56c-.615.044-1.26.155-1.925.337a.752.752 0 0 1-.173.026c-.038.421-.06.853-.045 1.292a4.395 4.395 0 0 1 2.143-1.656zM4.14 17.2c.196.326.397.645.605.956a1.816 1.816 0 0 1-.172.124c-.221.14-.458.213-.743.185-.294-.03-.69-.175-1.207-.565-.384-.29-.54-.518-.596-.676-.047-.135-.037-.262.05-.42.094-.176.278-.376.56-.598.063-.05.13-.1.2-.149a5.26 5.26 0 0 0 1.303 1.143zM18.823 6.48a5.56 5.56 0 0 0 .334-.179c.31-.18.52-.352.638-.513.107-.145.135-.27.107-.41-.032-.163-.156-.412-.496-.752-.458-.458-.829-.657-1.117-.727a1.124 1.124 0 0 0-.76.08c-.251.112-.491.3-.738.523l-.014.013c.851.464 1.558 1.116 2.046 1.965zm-8.549 14.913a7.162 7.162 0 0 1-1.556-.96 13.444 13.444 0 0 0 3.742-.56.5.5 0 1 0 .319-.1 13.295 13.295 0 0 0 3.258-1.583c.45-.299.855-.604 1.223-.91a.5.5 0 1 0 .568-.502c.6-.563 1.077-1.125 1.458-1.663a.5.5 0 1 0 .154-.226 8.977 8.977 0 0 0 .768-1.408c.035-.048.069-.096.1-.143.164.506.276.994.325 1.47.082.805-.018 1.579-.386 2.35a.5.5 0 1 0-.337.593c-.384.58-.942 1.18-1.733 1.798a.5.5 0 1 0-.263.2c-.179.133-.37.267-.57.401-2.531 1.687-4.576 2.003-6.287 1.525a.499.499 0 1 0-.783-.282zm4.375-8.447c.337-.015.67-.014.99-.005.377.011.744.033 1.087.053h.004c.348.02.668.039.963.045.614.014 1.021-.031 1.267-.152a.466.466 0 0 0 .214-.188c.045-.079.086-.208.086-.425 0-.156-.087-.344-.358-.509-.273-.166-.7-.28-1.243-.252-.843.045-1.93.435-3.01 1.433zm-8.322-.66c-.072.141-.236.202-.367.136-.13-.067-.177-.235-.105-.376.072-.142.236-.202.366-.136s.178.235.106.376z"/>
</svg>
